images/icon-storybook.svg

<?xml version="1.0" encoding="UTF-8"?>
<svg width="403px" height="501px" viewBox="0 0 403 501" version="1.1" xmlns="http://www.w3.org/2000/svg" xmlns:xlink="http://www.w3.org/1999/xlink">
    <!-- Generator: Sketch 64 (93537) - https://sketch.com -->
    <title>Group</title>
    <desc>Created with Sketch.</desc>
    <g id="Page-1" stroke="none" stroke-width="1" fill="none" fill-rule="evenodd">
        <g id="Group" fill-rule="nonzero">
            <path d="M15.5627263,461.731393 L0.0180615255,49.0227507 C-0.495210502,35.3941658 9.99242662,23.8439645 23.6535969,22.9925604 L375.971562,1.04927108 C382.923798,0.615147143 389.746792,3.06445735 394.823619,7.81676052 C399.900446,12.5690637 402.777778,19.2013768 402.777778,26.1419644 L402.777778,475.862208 C402.777778,482.725614 399.961691,489.290671 394.982407,494.033326 C390.003124,498.775982 383.29403,501.283739 376.412614,500.974432 L39.6442151,485.901238 C26.5276848,485.315782 16.0545595,474.804231 15.5627263,461.731393 Z" id="bg" fill="#A2ACB9"></path>
            <path d="M298.615087,91.420979 L301.775145,5.63618652 L365.317407,0 L368.052692,88.4648864 C368.117957,90.6331871 367.063247,92.6474878 365.348735,93.6289411 C363.634223,94.6103943 361.570987,94.3809269 360.059226,93.0406563 L335.551078,71.2512755 L306.537757,96.0911697 C305.013459,97.3937 302.960211,97.5873181 301.265502,96.588335 C299.570793,95.5893519 298.538605,93.5769562 298.615087,91.420979 L298.615087,91.420979 Z" id="Path" fill="#FFFFFF"></path>
            <path d="M229.974766,201.588617 C229.974766,210.71072 293.081147,206.338669 301.556448,199.930881 C301.556448,137.811317 267.318477,105.166667 204.633054,105.166667 C141.947632,105.166667 106.825647,138.32139 106.825647,188.044366 C106.825647,274.651972 226.864349,276.309708 226.864349,323.550634 C226.864349,336.812524 220.194493,344.682216 205.521745,344.682216 C186.405544,344.682216 178.846997,335.177559 179.735688,302.856258 C179.735688,295.842759 106.825647,293.656733 104.603921,302.856258 C98.9443654,381.184291 149.061833,403.777778 206.415113,403.777778 C261.986334,403.777778 305.555556,374.935901 305.555556,322.721766 C305.555556,229.89765 183.739473,232.384254 183.739473,186.38663 C183.739473,167.741652 197.967875,165.255048 206.415113,165.255048 C215.302018,165.255048 231.307802,166.780712 229.974766,201.588617 Z" id="Path" fill="#FFFFFF"></path>
        </g>
    </g>
</svg>

<svg width="403" height="501" xmlns="http://www.w3.org/2000/svg"><g fill-rule="nonzero" fill="none"><path d="M15.563 461.731L.018 49.023c-.513-13.629 9.974-25.179 23.636-26.03L375.972 1.049a25.283 25.283 0 0118.852 6.768 25.1 25.1 0 017.954 18.325v449.72a25.094 25.094 0 01-7.796 18.171 25.28 25.28 0 01-18.57 6.941L39.645 485.901c-13.116-.585-23.59-11.097-24.081-24.17z" fill="#A2ACB9"/><path d="M298.615 91.421l3.16-85.785L365.317 0l2.736 88.465c.065 2.168-.99 4.182-2.704 5.164-1.715.981-3.778.752-5.29-.588l-24.508-21.79-29.013 24.84c-1.525 1.303-3.578 1.496-5.272.497-1.695-.999-2.727-3.011-2.65-5.167zM229.975 201.589c0 9.122 63.106 4.75 71.581-1.658 0-62.12-34.238-94.764-96.923-94.764s-97.807 33.154-97.807 82.877c0 86.608 120.038 88.266 120.038 135.507 0 13.262-6.67 21.131-21.342 21.131-19.116 0-26.675-9.504-25.786-41.826 0-7.013-72.91-9.2-75.132 0-5.66 78.328 44.458 100.922 101.811 100.922 55.571 0 99.14-28.842 99.14-81.056 0-92.824-121.816-90.338-121.816-136.335 0-18.645 14.229-21.132 22.676-21.132 8.887 0 24.893 1.526 23.56 36.334z" fill="#FFF"/></g></svg>
